X:6
T:The Boyne Hunt
R:reel
M:4/4
L:1/8
K:D
BAFA DAFA | DAFA BEEB | BAFA DAFA | ABde fddB |
BAFA DAFA | DAFA BEEB | BAFA DAFA | ABde fddz ||
faaf a2af | g3a bgeg | faaf a2af | eede fee2 |
faaf a2af | g3a bgeg | f3e d2dB | ABde fddz |]
